X: 1
T: Brenda Stubbert's
C: Jerry Holland
I: RJ R-121 A Dor reel
M: C|
R: Reel
K: ADor
B | "Am"A/A/A BA GAAB | A/A/A BA edde | "G"G/G/G BA BGGB | "F"c2BA "G"BGG
B | "Am"A/A/A BA GAAB | A/A/A BA edda | "G"gedB GABd | e2dB "Am"eAA :|
|: B | "Am"A/A/A a2 A/A/A g2 | Aage ageg | "G"G/G/G BA BGGB | "F"c2BA "G"BGGB |
[1 "Am"A/A/A a2 A/A/A g2 | Aage agea | "G"gedB GABd | e2dB "Am"eAA :|
[2 "Am"A/A/A BA GAAB | A/A/A BA edda | "G"gedB GABd | e2dB "Am"eAA |]
